src/lib/packages/icons/src/assets/line/receipt-text.svg

<svg width="24" height="24" viewBox="0 0 24 24" fill="none" xmlns="http://www.w3.org/2000/svg">
<path d="M12 21.749C11.424 21.749 10.8481 21.53 10.4091 21.091L8.38904 19.072C8.12604 18.81 7.70396 18.781 7.40796 19.003L6.05005 20.022C5.51505 20.422 4.81302 20.485 4.21802 20.187C3.62102 19.889 3.25 19.289 3.25 18.622V6C3.25 3.582 4.582 2.25 7 2.25H17C19.418 2.25 20.75 3.582 20.75 6V18.621C20.75 19.288 20.379 19.888 19.782 20.186C19.187 20.484 18.484 20.421 17.95 20.021L16.5909 19.001C16.2959 18.779 15.873 18.808 15.611 19.071L13.5909 21.09C13.1519 21.53 12.576 21.749 12 21.749ZM7.85596 17.356C8.43696 17.356 9.01595 17.578 9.44995 18.011L11.47 20.031C11.753 20.314 12.247 20.314 12.531 20.031L14.551 18.012C15.338 17.225 16.604 17.137 17.491 17.803L18.851 18.823C18.959 18.905 19.061 18.872 19.113 18.847C19.164 18.821 19.251 18.758 19.251 18.623V6C19.251 4.423 18.578 3.75 17.001 3.75H7.00098C5.42398 3.75 4.75098 4.423 4.75098 6V18.621C4.75098 18.756 4.83804 18.819 4.88904 18.845C4.94204 18.871 5.043 18.903 5.151 18.821L6.51001 17.801C6.90801 17.503 7.38296 17.356 7.85596 17.356ZM16.75 9C16.75 8.586 16.414 8.25 16 8.25H8C7.586 8.25 7.25 8.586 7.25 9C7.25 9.414 7.586 9.75 8 9.75H16C16.414 9.75 16.75 9.414 16.75 9ZM13.75 13C13.75 12.586 13.414 12.25 13 12.25H8C7.586 12.25 7.25 12.586 7.25 13C7.25 13.414 7.586 13.75 8 13.75H13C13.414 13.75 13.75 13.414 13.75 13Z" fill="currentColor"/>
</svg>

<svg xmlns="http://www.w3.org/2000/svg" width="24" height="24" fill="none"><path fill="currentColor" d="M12 21.749a2.242 2.242 0 0 1-1.59-.658l-2.021-2.019a.756.756 0 0 0-.981-.069L6.05 20.022c-.535.4-1.237.463-1.832.165a1.74 1.74 0 0 1-.968-1.565V6c0-2.418 1.332-3.75 3.75-3.75h10c2.418 0 3.75 1.332 3.75 3.75v12.621a1.74 1.74 0 0 1-.968 1.565 1.741 1.741 0 0 1-1.832-.165l-1.36-1.02a.753.753 0 0 0-.979.07l-2.02 2.019a2.24 2.24 0 0 1-1.591.659Zm-4.144-4.393c.581 0 1.16.222 1.594.655l2.02 2.02a.77.77 0 0 0 1.061 0l2.02-2.019a2.261 2.261 0 0 1 2.94-.209l1.36 1.02a.24.24 0 0 0 .262.024.241.241 0 0 0 .138-.224V6c0-1.577-.673-2.25-2.25-2.25h-10c-1.577 0-2.25.673-2.25 2.25v12.621c0 .135.087.198.138.224a.238.238 0 0 0 .262-.024l1.359-1.02a2.243 2.243 0 0 1 1.346-.445ZM16.75 9a.75.75 0 0 0-.75-.75H8a.75.75 0 0 0 0 1.5h8a.75.75 0 0 0 .75-.75Zm-3 4a.75.75 0 0 0-.75-.75H8a.75.75 0 0 0 0 1.5h5a.75.75 0 0 0 .75-.75Z"/></svg>
